public/editor-src/editor/icons/editor/calendly.svg

<svg id="nc-calendly" xmlns="http://www.w3.org/2000/svg" viewBox="0 0 16 16"><g stroke="none" stroke-width="1" fill="currentColor" fill-rule="evenodd"><path d="M6.93774632,0.0899582525 C10.9260794,-0.499649953 14.7542911,1.86115268 15.942643,5.64314741 C16.0132109,5.86900373 16.1031969,6.25054292 15.6381114,6.58839796 C15.154335,6.93592167 14.5964423,7.17110027 14.0065232,7.27619089 L14.0065232,7.27619089 L14.0065232,7.26317859 C13.9556096,6.98542915 13.876273,6.71342747 13.769718,6.4513041 C14.2570827,6.37761097 14.7194975,6.19088958 15.1185607,5.90664646 L15.1185607,5.90664646 L15.0369134,5.66084075 C13.8942068,2.42452041 10.5549518,0.428607542 7.08015624,0.943110184 C3.52262743,1.46986289 0.892151157,4.46969579 0.892151157,8 C0.892151157,11.5303042 3.52262743,14.5301371 7.08015624,15.0568898 C10.637685,15.5836425 14.0531421,13.479013 15.1147718,10.1059011 C15.1161926,10.1017186 15.1185607,10.0970713 15.1185607,10.0933535 C14.7194262,9.80914917 14.2570603,9.62228823 13.769718,9.54823118 C13.8763959,9.28646879 13.9557371,9.01476291 14.0065232,8.73728614 L14.0065232,8.73728614 L14.0065232,8.72334439 C14.5964728,8.82860538 15.1543616,9.06394126 15.6381114,9.41160204 C16.1031969,9.74945708 16.0132109,10.1309963 15.942643,10.3568526 C14.7542911,14.1388473 10.9260794,16.49965 6.93774632,15.9100417 C2.94941326,15.3204335 0,11.9576726 0,8 C0,4.04232735 2.94941326,0.679566458 6.93774632,0.0899582525 Z M8.9990394,2.42910964 C10.5159249,2.42910964 11.917624,3.2230394 12.6761513,4.51200688 L12.6761513,4.51200688 L13.5026017,5.9168704 C13.6016573,6.08542642 13.6885413,6.26059291 13.7626138,6.44108015 L13.7626138,6.44108015 L13.7668763,6.45176882 C13.5806582,6.48110986 13.392357,6.49587268 13.2037534,6.49591769 C11.9671564,6.49591769 11.5034917,6.08974809 10.9659438,5.62502313 C10.4482875,5.17423993 9.80323003,4.61378164 8.62962321,4.61378164 L8.62962321,4.61378164 L7.92867967,4.61378164 C7.08044326,4.61378164 6.30893175,4.91585286 5.7567019,5.4642283 C5.21725954,6.00005617 4.92030576,6.73339214 4.92030576,7.52946599 L4.92030576,7.52946599 L4.92030576,8.47053401 C4.92030576,9.26660786 5.21725954,9.99994383 5.7567019,10.5357717 C6.30893175,11.0841471 7.08044326,11.3866831 7.92867967,11.3866831 L7.92867967,11.3866831 L8.62962321,11.3866831 C9.8018092,11.3866831 10.4482875,10.8257601 10.9659438,10.3749769 L10.9659438,10.3749769 C11.5034917,9.90839301 11.9671564,9.50454703 13.2037534,9.50454703 C13.3924299,9.50513905 13.5807496,9.52068039 13.7668763,9.55101953 L13.7668763,9.55101953 L13.7626138,9.56124348 C13.6885413,9.74173072 13.6016573,9.9168972 13.5026017,10.0854532 L13.5026017,10.0854532 L12.6761513,11.4879931 C11.917624,12.7769606 10.5159249,13.5708904 8.9990394,13.5708904 L8.9990394,13.5708904 L7.34566514,13.5708904 C5.82877961,13.5708904 4.42708056,12.7769606 3.6685532,11.4879931 L3.6685532,11.4879931 L2.84210287,10.0831296 C2.08383797,8.79403317 2.08383797,7.20596683 2.84210287,5.9168704 L2.84210287,5.9168704 L3.6685532,4.51200688 C4.42708056,3.2230394 5.82877961,2.42910964 7.34566514,2.42910964 L7.34566514,2.42910964 Z M8.62962321,5.46655193 C10.5108041,5.46655193 10.3620904,7.34868798 13.2037534,7.34868798 C13.4728871,7.34875252 13.7414544,7.32448424 14.0060496,7.27619089 C14.0922466,7.75502399 14.0922466,8.24497601 14.0060496,8.72380911 C13.7414869,8.6752862 13.4728979,8.65101596 13.2037534,8.65131202 C10.3630376,8.65131202 10.5108041,10.5334481 8.62962321,10.5334481 L8.62962321,10.5334481 L7.92867967,10.5334481 C6.63761744,10.5334481 5.78938103,9.62862859 5.78938103,8.47053401 L5.78938103,8.47053401 L5.78938103,7.52946599 C5.78938103,6.37137141 6.63761744,5.46655193 7.92867967,5.46655193 L7.92867967,5.46655193 Z" id="Combined-Shape" fill="currentColor" fill-rule="nonzero"></path></g></svg>

<svg xmlns="http://www.w3.org/2000/svg" viewBox="0 0 16 16"><path fill="currentColor" fill-rule="nonzero" d="M6.938.09c3.988-.59 7.816 1.771 9.005 5.553.07.226.16.608-.305.945a3.999 3.999 0 0 1-1.631.688v-.013c-.051-.278-.13-.55-.237-.812.487-.073.95-.26 1.349-.544l-.082-.246C13.894 2.425 10.555.429 7.08.943 3.523 1.47.892 4.47.892 8c0 3.53 2.63 6.53 6.188 7.057 3.558.527 6.973-1.578 8.035-4.951.001-.004.004-.009.004-.013a3.139 3.139 0 0 0-1.35-.545c.107-.262.187-.533.238-.81v-.015a4 4 0 0 1 1.631.689c.465.337.375.719.305.945-1.189 3.782-5.017 6.143-9.005 5.553C2.949 15.32 0 11.958 0 8S2.95.68 6.938.09Zm2.061 2.34c1.517 0 2.919.793 3.677 2.082l.827 1.405c.099.168.186.344.26.524l.004.01c-.186.03-.375.045-.563.045-1.237 0-1.7-.406-2.238-.871-.518-.45-1.163-1.011-2.336-1.011h-.701c-.849 0-1.62.302-2.172.85A2.88 2.88 0 0 0 4.92 7.53v.942c0 .796.297 1.529.837 2.065.552.548 1.323.85 2.172.85h.7c1.173 0 1.82-.56 2.337-1.011.537-.467 1.001-.87 2.238-.87.188 0 .377.016.563.046l-.004.01c-.074.18-.161.356-.26.524l-.827 1.403A4.262 4.262 0 0 1 9 13.571H7.346a4.262 4.262 0 0 1-3.677-2.083l-.827-1.405a4.1 4.1 0 0 1 0-4.166l.827-1.405a4.262 4.262 0 0 1 3.677-2.083Zm-.37 3.037c1.882 0 1.733 1.882 4.575 1.882.269 0 .537-.025.802-.073.086.479.086.969 0 1.448a4.42 4.42 0 0 0-.802-.073c-2.841 0-2.693 1.882-4.574 1.882h-.701c-1.291 0-2.14-.904-2.14-2.062v-.942c0-1.158.849-2.062 2.14-2.062Z"/></svg>
